X: 653
T: V'ha'er eyneynu
C: Shlomo Carlebach
M: C
L: 1/8
K: Dm
|: D \
| "Dm"(DA,) F>F "A7"F E2 E \
| "Dm"(DA,) F>F "A7"F E2 E \
| "Dm"(DE) F>F (FG) "(D7)"A>A \
| "Gm"GA (BA) G4 \
| "C7"(GA B2) AG2 G
| "F"(FG A2) GF2 D \
| "Dm"DA, D2 "(Bb)"DE F2 \
| "A7"ED (^CE) "Dm"D3 \
:: A \
| "Dm"(A2 d2 ^c2) d2 \
| "Gm"B6 zB
| "C7"(B2 d2) ^c2 d2 \
| "F"A6 zA \
| "Dm"(A2 d2) ^c2 d2 \
| "Gm"(e2 d2 B4) \
| d2 e2 d2 B2 \
| "A7"A6  z :|
